apps/client/src/components/info/assets/github.svg

<svg xmlns="http://www.w3.org/2000/svg" width="98" height="96" fill="none" viewBox="0 0 98 96"><path fill="currentColor" d="M49 0C21.922 0 0 22.146 0 49.5 0 71.379 14.035 89.937 33.523 96c2.45.465 3.348-1.073 3.348-2.375 0-1.173-.049-5.035-.072-9.133-13.622 3.016-16.491-5.889-16.491-5.889-2.225-5.753-5.43-7.287-5.43-7.287-4.44-3.095.336-3.033.336-3.033 4.909.35 7.494 5.137 7.494 5.137 4.361 7.584 11.444 5.394 14.235 4.123.438-3.22 1.707-5.42 3.108-6.675-10.872-1.265-22.306-5.551-22.306-24.696 0-5.456 1.909-9.91 5.043-13.426-.508-1.267-2.184-6.372.476-13.284 0 0 4.117-1.351 13.488 5.104 3.904-1.113 8.09-1.671 12.248-1.691 4.158.02 8.347.578 12.261 1.691 9.359-6.455 13.465-5.104 13.465-5.104 2.667 6.912.991 12.017.483 13.284 3.142 3.516 5.045 7.97 5.045 13.426 0 19.194-11.458 23.418-22.359 24.658 1.761 1.551 3.332 4.595 3.332 9.255 0 6.683-.059 12.068-.059 13.54 0 1.312.881 2.863 3.369 2.371C83.977 89.918 98 71.369 98 49.5 98 22.146 76.078 0 49 0"/></svg>

<svg
  xmlns="http://www.w3.org/2000/svg"
  width="98"
  height="96"
  viewBox="0 0 98 96"
  fill="none"
>
  <path
    fill="currentColor"
    d="M49 0C21.922 0 0 22.146 0 49.5C0 71.379 14.035 89.937 33.523 96C35.973 96.465 36.871 94.927 36.871 93.625C36.871 92.452 36.822 88.59 36.799 84.492C23.177 87.508 20.308 78.603 20.308 78.603C18.083 72.85 14.878 71.316 14.878 71.316C10.438 68.221 15.214 68.283 15.214 68.283C20.123 68.633 22.708 73.42 22.708 73.42C27.069 81.004 34.152 78.814 36.943 77.543C37.381 74.323 38.65 72.123 40.051 70.868C29.179 69.603 17.745 65.317 17.745 46.172C17.745 40.716 19.654 36.262 22.788 32.746C22.28 31.479 20.604 26.374 23.264 19.462C23.264 19.462 27.381 18.111 36.752 24.566C40.656 23.453 44.842 22.895 49 22.875C53.158 22.895 57.347 23.453 61.261 24.566C70.62 18.111 74.726 19.462 74.726 19.462C77.393 26.374 75.717 31.479 75.209 32.746C78.351 36.262 80.254 40.716 80.254 46.172C80.254 65.366 68.796 69.59 57.895 70.83C59.656 72.381 61.227 75.425 61.227 80.085C61.227 86.768 61.168 92.153 61.168 93.625C61.168 94.937 62.049 96.488 64.537 95.996C83.977 89.918 98 71.369 98 49.5C98 22.146 76.078 0 49 0Z"
  />
</svg>
